src/icons/svg/circle-filled.svg

<!--character:E180-->
<!--added:0.33.2-->
<svg width="24" height="24" viewBox="0 0 24 24" version="1.1" xmlns="http://www.w3.org/2000/svg"><path id="circle-filled-a" d="M12,22 C6.48666667,22 2,17.5144444 2,12 C2,6.48555556 6.48666667,2 12,2 C17.5133333,2 22,6.48555556 22,12 C22,17.5144444 17.5133333,22 12,22 Z M12,4.22222222 C7.71111111,4.22222222 4.22222222,7.71111111 4.22222222,12 C4.22222222,16.2888889 7.71111111,19.7777778 12,19.7777778 C16.2888889,19.7777778 19.7777778,16.2888889 19.7777778,12 C19.7777778,7.71111111 16.2888889,4.22222222 12,4.22222222 Z M12,7 C14.76,7 17,9.24 17,12 C17,14.76 14.76,17 12,17 C9.24,17 7,14.76 7,12 C7,9.24 9.24,7 12,7 Z"/></svg>

<!--character:E180-->
<!--added:0.33.2-->
<svg width="24" height="24" viewBox="0 0 24 24" xmlns="http://www.w3.org/2000/svg"><path d="M12 22C6.4867 22 2 17.5144 2 12S6.4867 2 12 2s10 4.4856 10 10-4.4867 10-10 10zm0-17.7778c-4.2889 0-7.7778 3.489-7.7778 7.7778 0 4.2889 3.489 7.7778 7.7778 7.7778 4.2889 0 7.7778-3.489 7.7778-7.7778 0-4.2889-3.489-7.7778-7.7778-7.7778zM12 7c2.76 0 5 2.24 5 5s-2.24 5-5 5-5-2.24-5-5 2.24-5 5-5z"/></svg>
